packages/icons/src/assets/middle-alignment.svg

<svg width="16" height="16" viewBox="0 0 16 16" fill="currentColor" xmlns="http://www.w3.org/2000/svg">
<g clip-path="url(#clip0_1_2179)">
<path d="M7.78906 9.49969C7.99384 9.49676 8.18745 9.59488 8.30664 9.76141L10.6357 13.0182L9.61914 13.7458L8.78223 12.5759L8.45898 11.654V15.7253H7.20898V11.6618L6.92773 12.5407L6.18066 13.6501L5.14355 12.9528L7.2793 9.77606C7.39365 9.60618 7.58429 9.50265 7.78906 9.49969Z" fill="currentColor"/>
<path d="M15.5 8.57489H0.5V7.32489H15.5V8.57489Z" fill="currentColor"/>
<path d="M8.57031 4.26239L8.85059 3.38641L9.59863 2.27509L10.6357 2.97235L8.5 6.14911C8.3857 6.31897 8.19495 6.42244 7.99023 6.42548C7.78548 6.42842 7.59186 6.33025 7.47266 6.16376L5.14355 2.90692L6.16016 2.17938L6.99707 3.3493L7.32031 4.27118V0.19989H8.57031V4.26239Z" fill="currentColor"/>
</g>
<defs>
<clipPath id="clip0_1_2179">
<rect width="16" height="16" fill="white"/>
</clipPath>
</defs>
</svg>

<svg xmlns="http://www.w3.org/2000/svg" width="16" height="16" viewBox="0 0 16 16"><path d="M7.79 9.5a.63.63 0 0 1 .517.261l2.329 3.257-1.017.728-.837-1.17-.323-.922v4.071h-1.25v-4.063l-.281.879-.747 1.11-1.037-.698 2.135-3.177a.63.63 0 0 1 .51-.276m7.711-.925H.5v-1.25h15zM8.57 4.262l.28-.876.749-1.11 1.037.696L8.5 6.15a.626.626 0 0 1-1.027.015l-2.33-3.257L6.16 2.18l.837 1.17.323.922V.2h1.25z"/></svg>
